X: 39446
T: Tarantella
R: jig
M: 6/8
K: Amajor
|:ABc ABc|~B2 A F2 A|EFA B3|EFA B3|
ABc ABc|~B2 A F2 A|EFA BcB|1 A3 A3:|2 (A3 A2) E||
F3 A3|EFA BcA|B3 B3|EFA BcB|
A3 e3|dcB cBA|B3 B2 E|GAB AGE|
F3 A3|EFA BcA|B3 B2 E|GAB cde|
fga gfe|dcB cBA|GAB AGF|EFG ABc||

